assets/icons/stake-icon.svg

<?xml version="1.0" encoding="UTF-8" standalone="no"?>
<svg
   width="36.404125"
   height="30.708912"
   viewBox="0 0 36.404125 30.708912"
   fill="none"
   version="1.1"
   id="svg828"
   sodipodi:docname="stake-icon.svg"
   inkscape:version="1.1.1 (c3084ef, 2021-09-22)"
   xmlns:inkscape="http://www.inkscape.org/namespaces/inkscape"
   xmlns:sodipodi="http://sodipodi.sourceforge.net/DTD/sodipodi-0.dtd"
   xmlns="http://www.w3.org/2000/svg"
   xmlns:svg="http://www.w3.org/2000/svg">
  <defs
     id="defs832" />
  <sodipodi:namedview
     id="namedview830"
     pagecolor="#ffffff"
     bordercolor="#666666"
     borderopacity="1.0"
     inkscape:pageshadow="2"
     inkscape:pageopacity="0.0"
     inkscape:pagecheckerboard="0"
     showgrid="false"
     inkscape:zoom="13.566038"
     inkscape:cx="13.673852"
     inkscape:cy="16.032684"
     inkscape:window-width="1312"
     inkscape:window-height="969"
     inkscape:window-x="0"
     inkscape:window-y="38"
     inkscape:window-maximized="0"
     inkscape:current-layer="svg828" />
  <g
     id="g934"
     transform="rotate(19.452807,53.115207,12.221078)"
     style="fill:#ffffff">
    <path
       d="m 29.7781,18.1375 c -1.4817,0.5175 -2.7159,1.3117 -3.5947,2.3285 -1.7844,0.1253 -3.6133,0.5195 -5.4432,1.1737 -5.4226,1.9389 -9.5749,5.7527 -10.95648,9.5954 C 9.12185,31.0893 8.42702,31.0856 7.74847,31.228 7.17949,30.8746 6.41565,30.7074 5.53248,30.7622 c -0.43036,0.0267 -0.83411,0.3473 -0.90502,0.7152 -0.06955,0.3685 0.22234,0.6447 0.65161,0.6185 0.18744,-0.0118 0.35591,-0.0081 0.50891,0.007 -0.69345,0.516 -1.13571,1.1617 -1.19167,1.7707 -0.07282,0.8016 0.35714,1.3685 1.15038,1.5169 0.41682,0.0775 0.8853,0.0243 1.32573,-0.1331 0.39879,-0.1422 0.77381,-0.3704 1.06476,-0.6642 0.58706,-0.5911 0.80167,-1.3849 0.58556,-2.1177 0.23058,0.0235 0.45791,0.0823 0.68143,0.1577 -0.17233,0.9612 -0.15954,1.9101 0.06555,2.8166 0.57668,2.3222 2.42948,4.0378 5.23368,4.8584 0.2043,1.046 0.753,3.2866 1.76,3.7859 0.7029,0.3494 1.9043,0.0094 2.5587,-0.2246 0.4141,-0.1481 1.8082,-0.6925 2.3642,-1.483 0.3126,-0.4439 0.348,-1.1948 0.3019,-1.8455 1.7621,-0.3081 3.5461,-0.8626 5.2726,-1.649 0.2507,0.4562 0.5851,0.9453 0.9306,1.1167 0.7029,0.3487 1.915,0.0051 2.5753,-0.231 0.5256,-0.1879 1.8054,-0.7073 2.3475,-1.4766 0.5751,-0.8174 0.2835,-2.4204 0.0389,-3.3573 0.9592,-0.8839 1.671,-1.8709 2.0062,-2.3739 3.195,-1.2349 3.6297,-2.7619 3.6692,-2.9367 0.0403,-0.1774 -0.0023,-0.3444 -0.1193,-0.4651 -0.117,-0.1208 -0.2987,-0.1845 -0.5044,-0.1764 -0.2865,0.0106 -0.5554,-0.0415 -0.7719,-0.1389 2.1286,-0.8423 2.4883,-1.4722 2.6129,-1.6916 0.6577,-1.1528 -0.0604,-3.941 -1.3649,-4.2681 -0.5542,-0.1383 -1.1728,0.0373 -1.7046,0.2274 l -0.5243,0.1926 c -0.3777,0.1351 -0.4893,0.1418 -0.5199,0.1386 -0.3237,-0.0899 -0.5671,-0.3258 -0.9044,-0.6521 -0.5392,-0.523 -1.2631,-1.2248 -2.8229,-1.6712 -0.0162,-0.8783 0.291,-1.7156 0.9699,-2.6676 0.158,-0.2221 0.1817,-0.4715 0.062,-0.6572 -0.1202,-0.1848 -0.3645,-0.2781 -0.6433,-0.2434 -0.8964,0.1111 -1.7407,0.3062 -2.5168,0.5773 z m -9.0346,4.4371 c 0.6655,-0.2365 1.3344,-0.4313 2.0002,-0.5824 l 0.2556,1.4059 c -1.398,0.3174 -2.8137,0.8471 -4.1795,1.5651 -1.3771,0.721 -2.6221,1.5827 -3.701,2.5626 l -0.929,-1.0538 c 1.1755,-1.0662 2.5266,-2.0024 4.0163,-2.783 0.8317,-0.4372 1.6816,-0.81 2.5372,-1.1141 z m 9.7283,0.8123 c 0.5358,-0.1915 1.0608,0.0177 1.1725,0.4676 0.1118,0.4499 -0.2322,0.9698 -0.768,1.1614 -0.5358,0.1916 -1.0608,-0.0179 -1.1725,-0.4676 -0.1117,-0.4498 0.2322,-0.9698 0.768,-1.1614 z M 6.46177,32.8118 c 0.421,-0.1505 0.84325,0.0536 0.94316,0.4559 0.0999,0.4023 -0.16043,0.8504 -0.58141,1.0009 -0.421,0.1506 -0.84325,-0.0535 -0.94316,-0.4558 -0.0999,-0.4023 0.16043,-0.8504 0.58141,-1.001 z"
       fill="white"
       id="path824"
       style="fill:#ffffff" />
    <path
       fill-rule="evenodd"
       clip-rule="evenodd"
       d="m 15.5246,19.7974 c 2.2084,-1.2109 3.409,-3.5907 2.6815,-5.3153 -0.7275,-1.7246 -3.1076,-2.1411 -5.3161,-0.9301 -2.2084,1.2109 -3.409,3.5907 -2.6815,5.3153 0.7275,1.7247 3.1076,2.1411 5.3161,0.9301 z m -1.7048,-4.3775 c -0.0446,-0.0895 -0.1565,-0.1271 -0.2498,-0.084 -0.0934,0.0431 -0.1328,0.1506 -0.0882,0.2401 l 1.1874,2.3806 c 0.0446,0.0895 0.1565,0.1271 0.2498,0.084 0.0934,-0.0431 0.1328,-0.1506 0.0882,-0.2401 z"
       fill="white"
       id="path826"
       style="fill:#ffffff" />
  </g>
</svg>

<svg width="43" height="53" viewBox="0 0 43 53" fill="none" xmlns="http://www.w3.org/2000/svg">
<path d="M29.7781 18.1375C28.2964 18.655 27.0622 19.4492 26.1834 20.466C24.399 20.5913 22.5701 20.9855 20.7402 21.6397C15.3176 23.5786 11.1653 27.3924 9.78372 31.2351C9.12185 31.0893 8.42702 31.0856 7.74847 31.228C7.17949 30.8746 6.41565 30.7074 5.53248 30.7622C5.10212 30.7889 4.69837 31.1095 4.62746 31.4774C4.55791 31.8459 4.8498 32.1221 5.27907 32.0959C5.46651 32.0841 5.63498 32.0878 5.78798 32.1029C5.09453 32.6189 4.65227 33.2646 4.59631 33.8736C4.52349 34.6752 4.95345 35.2421 5.74669 35.3905C6.16351 35.468 6.63199 35.4148 7.07242 35.2574C7.47121 35.1152 7.84623 34.887 8.13718 34.5932C8.72424 34.0021 8.93885 33.2083 8.72274 32.4755C8.95332 32.499 9.18065 32.5578 9.40417 32.6332C9.23184 33.5944 9.24463 34.5433 9.46972 35.4498C10.0464 37.772 11.8992 39.4876 14.7034 40.3082C14.9077 41.3542 15.4564 43.5948 16.4634 44.0941C17.1663 44.4435 18.3677 44.1035 19.0221 43.8695C19.4362 43.7214 20.8303 43.177 21.3863 42.3865C21.6989 41.9426 21.7343 41.1917 21.6882 40.541C23.4503 40.2329 25.2343 39.6784 26.9608 38.892C27.2115 39.3482 27.5459 39.8373 27.8914 40.0087C28.5943 40.3574 29.8064 40.0138 30.4667 39.7777C30.9923 39.5898 32.2721 39.0704 32.8142 38.3011C33.3893 37.4837 33.0977 35.8807 32.8531 34.9438C33.8123 34.0599 34.5241 33.0729 34.8593 32.5699C38.0543 31.335 38.489 29.808 38.5285 29.6332C38.5688 29.4558 38.5262 29.2888 38.4092 29.1681C38.2922 29.0473 38.1105 28.9836 37.9048 28.9917C37.6183 29.0023 37.3494 28.9502 37.1329 28.8528C39.2615 28.0105 39.6212 27.3806 39.7458 27.1612C40.4035 26.0084 39.6854 23.2202 38.3809 22.8931C37.8267 22.7548 37.2081 22.9304 36.6763 23.1205L36.152 23.3131C35.7743 23.4482 35.6627 23.4549 35.6321 23.4517C35.3084 23.3618 35.065 23.1259 34.7277 22.7996C34.1885 22.2766 33.4646 21.5748 31.9048 21.1284C31.8886 20.2501 32.1958 19.4128 32.8747 18.4608C33.0327 18.2387 33.0564 17.9893 32.9367 17.8036C32.8165 17.6188 32.5722 17.5255 32.2934 17.5602C31.397 17.6713 30.5527 17.8664 29.7766 18.1375L29.7781 18.1375ZM20.7435 22.5746C21.409 22.3381 22.0779 22.1433 22.7437 21.9922L22.9993 23.3981C21.6013 23.7155 20.1856 24.2452 18.8198 24.9632C17.4427 25.6842 16.1977 26.5459 15.1188 27.5258L14.1898 26.472C15.3653 25.4058 16.7164 24.4696 18.2061 23.689C19.0378 23.2518 19.8877 22.879 20.7433 22.5749L20.7435 22.5746ZM30.4718 23.3869C31.0076 23.1954 31.5326 23.4046 31.6443 23.8545C31.7561 24.3044 31.4121 24.8243 30.8763 25.0159C30.3405 25.2075 29.8155 24.998 29.7038 24.5483C29.5921 24.0985 29.936 23.5785 30.4718 23.3869ZM6.46177 32.8118C6.88277 32.6613 7.30502 32.8654 7.40493 33.2677C7.50483 33.67 7.2445 34.1181 6.82352 34.2686C6.40252 34.4192 5.98027 34.2151 5.88036 33.8128C5.78046 33.4105 6.04079 32.9624 6.46177 32.8118Z" fill="white"/>
<path fill-rule="evenodd" clip-rule="evenodd" d="M15.5246 19.7974C17.733 18.5865 18.9336 16.2067 18.2061 14.4821C17.4786 12.7575 15.0985 12.341 12.89 13.552C10.6816 14.7629 9.481 17.1427 10.2085 18.8673C10.936 20.592 13.3161 21.0084 15.5246 19.7974ZM13.8198 15.4199C13.7752 15.3304 13.6633 15.2928 13.57 15.3359C13.4766 15.379 13.4372 15.4865 13.4818 15.576L14.6692 17.9566C14.7138 18.0461 14.8257 18.0837 14.919 18.0406C15.0124 17.9975 15.0518 17.89 15.0072 17.8005L13.8198 15.4199Z" fill="white"/>
</svg>
